Adwaita++-Dark/actions/16/xapp-search-wrap.svg

<svg height="16" viewBox="0 0 16 16" width="16" xmlns="http://www.w3.org/2000/svg">
  <path d="m15 5h-2v-2.0683594c0-1.0697-.939069-1.9316406-2.105469-1.9316406h-5.789062c-1.166 0-2.105469.8619406-2.105469 1.9316406v10.1367184c0 1.07.939469 1.931641 2.105469 1.931641h5.789062c1.1664 0 2.105469-.861641 2.105469-1.931641v-2.068359h-2v1.998047c-.009-.002-.026269.001953-.105469.001953h-5.789062c-.079 0-.096469-.003953-.105469-.001953v-9.9941408c.009.0010001.026469-.0039062.105469-.0039062h5.789062c.0792 0 .09657.00491.105469.00391v1.99609h-2l3 4z" fill="#e6ddff"/>
</svg>

<svg xmlns="http://www.w3.org/2000/svg" width="16" height="16" version="1.1" viewBox="0 0 16 16">
 <path style="fill:#E6DDFF" d="M 15,5 H 13 V 2.9316406 C 13,1.8619406 12.060931,1 10.894531,1 H 5.105469 C 3.939469,1 3,1.8619406 3,2.9316406 V 13.068359 C 3,14.138359 3.939469,15 5.105469,15 h 5.789062 C 12.060931,15 13,14.138359 13,13.068359 V 11 h -2 v 1.998047 C 10.991,12.996047 10.973731,13 10.894531,13 H 5.105469 C 5.026469,13 5.009,12.996047 5,12.998047 V 3.0039062 C 5.009,3.0049063 5.026469,3 5.105469,3 h 5.789062 c 0.0792,0 0.09657,0.00491 0.105469,0.00391 V 5 H 9 l 3,4 z"/>
</svg>
